svgs/thin/hat-chef.svg

<svg xmlns="http://www.w3.org/2000/svg" viewBox="0 0 512 512"><!--! Font Awesome Pro 6.3.0 by @fontawesome - https://fontawesome.com License - https://fontawesome.com/license (Commercial License) Copyright 2023 Fonticons, Inc. --><path d="M72 352h368c3.344 0 6.344-2.062 7.5-5.219C450.1 339.8 512 173.4 512 132c0-55.69-45.31-101-101.1-101c-19.22 .125-38.25 5.844-54.31 16.25C331.4 17.12 295.1 0 256 0S180.7 17.12 155.4 47.22C125.6 27.81 88.13 25.44 55.94 41.5C21.28 58.56-.125 93.25 0 132c0 41.41 61.88 207.8 64.5 214.8C65.69 349.9 68.66 352 72 352zM63.03 55.84c29.09-14.53 63.19-11.22 89.03 8.625c1.719 1.312 3.875 1.781 5.969 1.594c2.125-.3125 4.031-1.438 5.312-3.156C185.7 33.09 219.4 16 256 16s70.34 17.09 92.66 46.91c1.281 1.719 3.188 2.844 5.312 3.156c2.094 .2187 4.25-.25 5.969-1.594C374.5 53.31 392.6 47.13 411 47C457.9 47 496 85.13 496 132c0 29.97-39.19 143.6-61.56 204h-72.93l30.37-174.6c.75-4.344-2.156-8.5-6.5-9.25c-4.625-1-8.531 2.188-9.25 6.5L345.3 336H264V160c0-4.406-3.594-8-8-8S248 155.6 248 160v176H166.7L135.9 158.6c-.75-4.344-4.688-7.562-9.25-6.5c-4.344 .75-7.25 4.906-6.5 9.25L150.5 336H77.56C55.19 275.6 16 161.1 16 131.1C15.88 99.38 33.91 70.22 63.03 55.84zM440 384c-4.406 0-8 3.594-8 8v81.34C432 485.8 421.8 496 409.3 496H102.7C90.16 496 80 485.8 80 473.3V392C80 387.6 76.41 384 72 384S64 387.6 64 392v81.34C64 494.7 81.34 512 102.7 512h306.7C430.7 512 448 494.7 448 473.3V392C448 387.6 444.4 384 440 384z"/></svg>

<svg xmlns="http://www.w3.org/2000/svg" viewBox="0 0 512 512"><!-- Font Awesome Pro 6.0.0-alpha2 by @fontawesome - https://fontawesome.com License - https://fontawesome.com/license (Commercial License) --><path d="M72.001 352H440.001C443.344 352 446.344 349.938 447.501 346.781C450.126 339.75 512.001 173.406 512.001 132C512.001 76.312 466.688 31 410.938 31C391.719 31.125 372.688 36.844 356.626 47.25C331.376 17.125 295.094 0 256.001 0S180.657 17.125 155.376 47.219C125.594 27.812 88.126 25.438 55.938 41.5C21.282 58.562 -0.124 93.25 0.001 132C0.001 173.406 61.876 339.75 64.501 346.781C65.688 349.938 68.657 352 72.001 352ZM63.032 55.844C92.126 41.312 126.219 44.625 152.063 64.469C153.782 65.781 155.938 66.25 158.032 66.062C160.157 65.75 162.063 64.625 163.344 62.906C185.657 33.094 219.438 16 256.001 16S326.344 33.094 348.657 62.906C349.938 64.625 351.844 65.75 353.969 66.062C356.063 66.281 358.219 65.812 359.938 64.469C374.469 53.312 392.626 47.125 411.001 47C457.876 47 496.001 85.125 496.001 132C496.001 161.969 456.813 275.562 434.438 336H361.506L391.876 161.375C392.626 157.031 389.719 152.875 385.376 152.125C380.751 151.125 376.844 154.313 376.126 158.625L345.278 336H264.001V160C264.001 155.594 260.407 152 256.001 152S248.001 155.594 248.001 160V336H166.723L135.876 158.625C135.126 154.281 131.188 151.062 126.626 152.125C122.282 152.875 119.376 157.031 120.126 161.375L150.495 336H77.563C55.188 275.562 16.001 161.969 16.001 131.969C15.876 99.375 33.907 70.219 63.032 55.844ZM440.001 384C435.594 384 432.001 387.594 432.001 392V473.344C432.001 485.844 421.844 496 409.344 496H102.657C90.157 496 80.001 485.844 80.001 473.344V392C80.001 387.594 76.407 384 72.001 384S64.001 387.594 64.001 392V473.344C64.001 494.656 81.344 512 102.657 512H409.344C430.657 512 448.001 494.656 448.001 473.344V392C448.001 387.594 444.407 384 440.001 384Z"/></svg>
